src/assets/icons/cafe.svg

<svg xmlns="http://www.w3.org/2000/svg" viewBox="0 0 32 32"><path d="M29 27v2H3v-2zm0-13v5h-2v-3h-1.9A10.07 10.07 0 015 15v-1zm-5.91 2h-16a8.08 8.08 0 0016 0zM18.33 2.45l1.35 2.65-1.31 4 1 2-1.78.9-1.37-2.7 1.3-4-1-1.92zm-4.8 0l1.35 2.65-1.31 4 1 2-1.79.9-1.37-2.7 1.31-4-1-1.92z" fill-rule="evenodd"/></svg>

<svg xmlns="http://www.w3.org/2000/svg" width="32" height="32" viewBox="0 0 32 32"><defs><style>.cls-1{fill-rule:evenodd;}</style></defs><g id="café"><path id="Combined-Shape" class="cls-1" d="M29,27v2H3V27Zm0-13v5L27,19V16L25.1,16A10.07,10.07,0,0,1,5,15H5V14Zm-5.91,2h-16a8.08,8.08,0,0,0,16,0ZM18.33,2.45,19.68,5.1l-1.31,4,1,2L17.59,12l-1.37-2.7,1.3-4-1-1.92Zm-4.8,0L14.88,5.1l-1.31,4,1,2L12.78,12l-1.37-2.7,1.31-4-1-1.92Z"/></g></svg>
